X: 16567
T: Hamish The Carpenter
R: reel
M: 4/4
K: Adorian
A2 GE GABd|e2 dB de g2|A2 GE GABd|egdB A2 AG|
A2 GE GABd|e2 dB dega|gedB GABd|egdB A2 AG||
Aaab a2 ge|gaba ge d2|eaab ageg|dBgB A2 AG:|

